X:1
T:Ter Sanctus, 88.10.10
T:Ter Sanctus, 88.10.10
T:Rostockerhandboken, 1529
T:Public Domain Courtesy of the Cyber Hymnal™
C:Rostockerhandboken, 1529
Z:Public Domain
Z:Courtesy of the Cyber Hymnal™
%%score 1 ( 2 3 )
L:1/8
Q:1/4=110
M:none
K:C
V:1 treble 
V:2 bass 
V:3 bass 
V:1
 [B,E]2 [B,F]2 [CE]2 | [B,D]2 [CE]2 [A,C]2 [A,D]2 | !fermata![B,E]2 [DG]2 [CE]2 [A,C]2 | %3
 [A,D]2 [A,E]2 [A,F]2 [DF]2 | !fermata![CE]2 [EB]2 [Ec]2 [FA]2 | [FB]2 [Gc]2 [EA]2 [FA]2 | %6
 [EG]2 [EA]2 [^GB]4 | [Ge]4 [Fd]4 | [DB]4 [DG]4 | [CE]4 [A,C]2 [A,D]2 | [CE]4 [A,D]4 | %11
 !fermata![B,E]2 |] %12
V:2
 [E,G,]2 [D,F,]2 [C,G,]2 | G,2 [C,G,]2 [F,A,]2 [F,A,]2 | [E,^G,]2 [B,,=G,]2 [C,G,]2 F,2 | %3
 [D,F,]2 [^C,A,]2 [D,A,]2 [F,A,]2 | A,2 [G,B,]2 A,2 [F,C]2 | [D,D]2 [E,C]2 [A,C]2 [F,C]2 | %6
 [C,C]2 [A,,C]2 [E,B,]4 | [C,C]4 [D,A,]4 | G,4 [B,,G,]4 | [C,G,]4 F,2 [D,F,]2 | [C,G,]4 [F,A,]4 | %11
 !fermata![E,^G,]2 |] %12
V:3
 x6 | G,2 x6 | x6 F,2 | x8 | A,2 A,2 x4 | x8 | x8 | x8 | G,4 x4 | x4 F,2 x2 | x8 | x2 |] %12

